azure-patterns/svg-devops-share-code.svg

<svg xmlns="http://www.w3.org/2000/svg" viewBox="0 0 80 80">
                                
                            
    <rect width="80" height="80" fill="black" fill-opacity="0"></rect>
    <circle cx="40" cy="40" r="40" fill="#CB2E6D" fill-opacity="0.05"></circle>
    <path d="M49.5625 34.8281C50.2396 35.1719 50.849 35.599 51.3906 36.1094C51.9427 36.6094 52.4115 37.1719 52.7969 37.7969C53.1823 38.4115 53.4792 39.0781 53.6875 39.7969C53.8958 40.5052 54 41.2396 54 42H52C52 41.1771 51.8385 40.401 51.5156 39.6719C51.2031 38.9427 50.776 38.3073 50.2344 37.7656C49.6927 37.224 49.0573 36.7969 48.3281 36.4844C47.599 36.1615 46.8229 36 46 36C45.1771 36 44.401 36.1615 43.6719 36.4844C42.9427 36.7969 42.3073 37.224 41.7656 37.7656C41.224 38.3073 40.7917 38.9427 40.4688 39.6719C40.1562 40.401 40 41.1771 40 42C40 42.9479 39.7812 43.849 39.3438 44.7031C38.9167 45.5573 38.3229 46.2656 37.5625 46.8281C38.2396 47.1719 38.849 47.599 39.3906 48.1094C39.9427 48.6094 40.4115 49.1719 40.7969 49.7969C41.1823 50.4115 41.4792 51.0781 41.6875 51.7969C41.8958 52.5052 42 53.2396 42 54H40C40 53.1771 39.8385 52.401 39.5156 51.6719C39.2031 50.9427 38.776 50.3073 38.2344 49.7656C37.6927 49.224 37.0573 48.7969 36.3281 48.4844C35.599 48.1615 34.8229 48 34 48C33.1771 48 32.401 48.1615 31.6719 48.4844C30.9427 48.7969 30.3073 49.224 29.7656 49.7656C29.224 50.3073 28.7917 50.9427 28.4688 51.6719C28.1562 52.401 28 53.1771 28 54H26C26 53.2396 26.1042 52.5052 26.3125 51.7969C26.5208 51.0781 26.8177 50.4115 27.2031 49.7969C27.5885 49.1719 28.0521 48.6094 28.5938 48.1094C29.1458 47.599 29.7604 47.1719 30.4375 46.8281C29.6771 46.2656 29.0781 45.5573 28.6406 44.7031C28.2135 43.849 28 42.9479 28 42C28 41.1771 28.1562 40.401 28.4688 39.6719C28.7917 38.9427 29.224 38.3073 29.7656 37.7656C30.3073 37.224 30.9427 36.7969 31.6719 36.4844C32.401 36.1615 33.1771 36 34 36C34.9479 36 35.849 36.2188 36.7031 36.6562C37.5573 37.0833 38.2656 37.6771 38.8281 38.4375C39.224 37.6562 39.7292 36.9583 40.3438 36.3438C40.9583 35.7292 41.6562 35.224 42.4375 34.8281C41.6771 34.2656 41.0781 33.5573 40.6406 32.7031C40.2135 31.849 40 30.9479 40 30C40 29.1771 40.1562 28.401 40.4688 27.6719C40.7917 26.9427 41.224 26.3073 41.7656 25.7656C42.3073 25.224 42.9427 24.7969 43.6719 24.4844C44.401 24.1615 45.1771 24 46 24C46.8229 24 47.599 24.1615 48.3281 24.4844C49.0573 24.7969 49.6927 25.224 50.2344 25.7656C50.776 26.3073 51.2031 26.9427 51.5156 27.6719C51.8385 28.401 52 29.1771 52 30C52 30.9479 51.7812 31.849 51.3438 32.7031C50.9167 33.5573 50.3229 34.2656 49.5625 34.8281ZM34 46C34.5417 46 35.0573 45.8958 35.5469 45.6875C36.0365 45.4688 36.4583 45.1823 36.8125 44.8281C37.1771 44.4635 37.4635 44.0417 37.6719 43.5625C37.8906 43.0729 38 42.5521 38 42C38 41.4583 37.8906 40.9427 37.6719 40.4531C37.4635 39.9635 37.1771 39.5417 36.8125 39.1875C36.4583 38.8229 36.0365 38.5365 35.5469 38.3281C35.0573 38.1094 34.5417 38 34 38C33.4479 38 32.9271 38.1094 32.4375 38.3281C31.9583 38.5365 31.5365 38.8229 31.1719 39.1875C30.8177 39.5417 30.5312 39.9635 30.3125 40.4531C30.1042 40.9427 30 41.4583 30 42C30 42.5521 30.1042 43.0729 30.3125 43.5625C30.5312 44.0417 30.8177 44.4635 31.1719 44.8281C31.5365 45.1823 31.9583 45.4688 32.4375 45.6875C32.9271 45.8958 33.4479 46 34 46ZM42 30C42 30.5521 42.1042 31.0729 42.3125 31.5625C42.5312 32.0417 42.8177 32.4635 43.1719 32.8281C43.5365 33.1823 43.9583 33.4688 44.4375 33.6875C44.9271 33.8958 45.4479 34 46 34C46.5417 34 47.0573 33.8958 47.5469 33.6875C48.0365 33.4688 48.4583 33.1823 48.8125 32.8281C49.1771 32.4635 49.4635 32.0417 49.6719 31.5625C49.8906 31.0729 50 30.5521 50 30C50 29.4583 49.8906 28.9427 49.6719 28.4531C49.4635 27.9635 49.1771 27.5417 48.8125 27.1875C48.4583 26.8229 48.0365 26.5365 47.5469 26.3281C47.0573 26.1094 46.5417 26 46 26C45.4479 26 44.9271 26.1094 44.4375 26.3281C43.9583 26.5365 43.5365 26.8229 43.1719 27.1875C42.8177 27.5417 42.5312 27.9635 42.3125 28.4531C42.1042 28.9427 42 29.4583 42 30Z" fill="#CB2E6D"></path>
</svg>

<svg xmlns="http://www.w3.org/2000/svg" viewBox="0 0 80 80"><path fill="none" d="M0 0h80v80H0z"/><circle cx="40" cy="40" r="40" fill="#CB2E6D" fill-opacity=".05"/><path d="M49.563 34.828c.677.344 1.286.771 1.828 1.281.552.5 1.02 1.063 1.406 1.688.385.614.682 1.281.89 2 .209.708.313 1.443.313 2.203h-2c0-.823-.161-1.599-.484-2.328a6.021 6.021 0 0 0-1.282-1.906 6.021 6.021 0 0 0-1.906-1.282A5.685 5.685 0 0 0 46 36c-.823 0-1.599.161-2.328.484-.73.313-1.365.74-1.906 1.282a6.242 6.242 0 0 0-1.297 1.906A5.845 5.845 0 0 0 40 42c0 .948-.219 1.849-.656 2.703a5.87 5.87 0 0 1-1.782 2.125c.678.344 1.287.771 1.829 1.281.552.5 1.02 1.063 1.406 1.688.385.614.682 1.281.89 2 .209.708.313 1.443.313 2.203h-2c0-.823-.161-1.599-.484-2.328a6.021 6.021 0 0 0-1.282-1.906 6.021 6.021 0 0 0-1.906-1.282A5.685 5.685 0 0 0 34 48c-.823 0-1.599.161-2.328.484-.73.313-1.365.74-1.906 1.282a6.242 6.242 0 0 0-1.297 1.906A5.845 5.845 0 0 0 28 54h-2c0-.76.104-1.495.313-2.203a7.863 7.863 0 0 1 .89-2 8.11 8.11 0 0 1 3.234-2.969 6.017 6.017 0 0 1-1.796-2.125A5.965 5.965 0 0 1 28 42c0-.823.156-1.599.469-2.328a6.242 6.242 0 0 1 1.297-1.906 6.021 6.021 0 0 1 1.906-1.282A5.685 5.685 0 0 1 34 36c.948 0 1.849.219 2.703.656a5.87 5.87 0 0 1 2.125 1.782 8.15 8.15 0 0 1 3.61-3.61 6.017 6.017 0 0 1-1.797-2.125A5.965 5.965 0 0 1 40 30c0-.823.156-1.599.469-2.328a6.242 6.242 0 0 1 1.297-1.906 6.021 6.021 0 0 1 1.906-1.282A5.685 5.685 0 0 1 46 24c.823 0 1.599.162 2.328.484.73.313 1.365.74 1.906 1.282a6.021 6.021 0 0 1 1.282 1.906C51.839 28.4 52 29.177 52 30c0 .948-.219 1.849-.656 2.703a5.87 5.87 0 0 1-1.782 2.125zM34 46a3.91 3.91 0 0 0 1.547-.313 4.066 4.066 0 0 0 2.125-2.125c.219-.49.328-1.01.328-1.562a3.75 3.75 0 0 0-.328-1.547 3.838 3.838 0 0 0-.86-1.266 3.838 3.838 0 0 0-1.265-.859A3.75 3.75 0 0 0 34 38c-.552 0-1.073.11-1.563.328a4.066 4.066 0 0 0-2.124 2.125A3.91 3.91 0 0 0 30 42c0 .552.104 1.073.313 1.563.218.479.505.9.859 1.265.364.354.786.64 1.265.86A3.95 3.95 0 0 0 34 46zm8-16c0 .552.104 1.073.313 1.563.218.479.505.9.859 1.265.364.354.786.64 1.266.86A3.95 3.95 0 0 0 46 34a3.91 3.91 0 0 0 1.547-.313 4.066 4.066 0 0 0 2.125-2.125c.219-.49.328-1.01.328-1.562a3.75 3.75 0 0 0-.328-1.547 3.838 3.838 0 0 0-.86-1.265 3.838 3.838 0 0 0-1.265-.86A3.75 3.75 0 0 0 46 26c-.552 0-1.073.11-1.563.328a4.066 4.066 0 0 0-2.124 2.125A3.91 3.91 0 0 0 42 30z" fill="#CB2E6D"/></svg>
